docroot/themes/iucn_who/images/social_media/email.svg

<?xml version="1.0" encoding="UTF-8" standalone="no"?>
<svg width="35px" height="34px" viewBox="0 0 35 34" version="1.1" xmlns="http://www.w3.org/2000/svg" xmlns:xlink="http://www.w3.org/1999/xlink">
    <!-- Generator: Sketch 3.8.3 (29802) - http://www.bohemiancoding.com/sketch -->
    <title>Group 6</title>
    <desc>Created with Sketch.</desc>
    <defs></defs>
    <g id="Symbols" stroke="none" stroke-width="1" fill="none" fill-rule="evenodd">
        <g id="Footer-white" transform="translate(-291.000000, -59.000000)" fill="#FFFFFF">
            <g id="Group-2" transform="translate(90.000000, 58.000000)">
                <g id="Group-6" transform="translate(201.000000, 1.000000)">
                    <path d="M28.4559716,23.54996 C28.4559716,24.07316 28.1373117,24.19916 27.5982254,24.19916 L7.70594112,24.19916 C7.16685482,24.19916 5.69455025,24.07316 5.69455025,23.54996 L5.69455025,14.46716 C5.69455025,14.23916 6.0743066,13.94036 6.55828629,14.19476 C7.24831675,14.55476 15.8856772,18.98996 16.3085604,19.21076 C16.7314437,19.43276 17.1231797,19.45916 17.5316873,19.45916 C17.938997,19.45916 18.2828142,19.43276 18.7056975,19.21076 C19.1285807,18.98996 27.4532711,14.55596 28.1433015,14.19596 C28.6296772,13.94276 28.4559716,14.24036 28.4559716,14.46956 L28.4559716,23.54996 Z M7.11055025,9.79916 L28.1456975,9.79916 C29.2598091,9.79916 28.6859817,11.09876 28.0774132,11.42636 C27.4712406,11.75276 19.0674843,16.28876 18.7536162,16.45676 C18.4409462,16.62596 18.0348345,16.71116 17.6275249,16.71116 C17.2202152,16.71116 16.8141036,16.63556 16.5014335,16.46756 C16.1875655,16.29836 7.78380914,11.75156 7.17643858,11.42516 C6.57026599,11.09756 5.99524061,9.79916 7.11055025,9.79916 L7.11055025,9.79916 Z M17.6526822,0.20036 C8.38998173,0.20036 0.881108629,7.72196 0.881108629,17.00036 C0.881108629,26.27876 8.38998173,33.80036 17.6526822,33.80036 C26.9153827,33.80036 34.4242558,26.27876 34.4242558,17.00036 C34.4242558,7.72196 26.9153827,0.20036 17.6526822,0.20036 L17.6526822,0.20036 Z" id="Fill-5"></path>
                </g>
            </g>
        </g>
    </g>
</svg>

<svg width="35" height="34" viewBox="0 0 35 34" xmlns="http://www.w3.org/2000/svg"><title>Group 6</title><path d="M28.456 23.55c0 .523-.319.65-.858.65H7.706c-.54 0-2.011-.127-2.011-.65v-9.083c0-.228.38-.527.863-.272.69.36 9.328 4.795 9.75 5.016.423.222.815.248 1.224.248.407 0 .75-.026 1.174-.248.423-.221 8.747-4.655 9.437-5.015.487-.253.313.044.313.274v9.08zM7.111 9.8h21.035c1.114 0 .54 1.299-.069 1.626-.606.327-9.01 4.863-9.323 5.03-.313.17-.72.255-1.126.255-.408 0-.814-.075-1.127-.243-.313-.17-8.717-4.716-9.325-5.043-.606-.327-1.18-1.626-.065-1.626zM17.653.2C8.39.2.88 7.722.88 17c0 9.279 7.509 16.8 16.772 16.8 9.262 0 16.771-7.521 16.771-16.8 0-9.278-7.509-16.8-16.771-16.8z" fill="#FFF" fill-rule="evenodd"/></svg>
